X:1
T:Title
%%score ( 1 2 ) 3
L:1/8
M:4/4
K:F
V:1 treble nm="Bright Piano"
V:2 treble 
V:3 bass nm="Bright Piano"
V:1
 z4 z2[Q:1/4=100] [CA]2 | [CA]4 [B,G]4 | [A,F]6 [CF]2 | [GB]3 [GB] [FA]2 [CA]2 | %4
 [CA]4 [CG]2 [EG]2 | [Fc]2 [Fc]2 [EB]2 [FA]2 | [Fd]3 [Fd] [Fc]2 [Fc]2 | c2 z2 z4 | %8
 [FA]4 [EG]2 [EG]2 | G2 [Ec]2 [Ge]3 [Fd] | [Ec]2 [F=B]2 [Ec]2 [EG]2 | [GB]4 [FA]4 | [FA]6 [FA]2 | %13
 [Fd]4 [Ac]2 [EB]2 |[M:3/4] [FA]4 z2 |] %15
V:2
 x8 | x8 | x8 | x8 | x8 | x8 | x8 | G2- [GB]2 [FA]2 [EG]2 | x8 | x8 | x8 | x8 | x8 | x8 | %14
[M:3/4] x6 |] %15
V:3
 z4 z2 F,2 | F,4 [C,E,]4 | F,6 [F,A,]2 | [E,C]3 [E,C] [F,C]2 [A,,F,]2 | [C,F,]4 [C,E,]2 [B,C]2 | %5
 [A,C]2 [A,C]2 [G,C]2 [F,C]2 | [B,,B,]3 [B,,B,] [F,A,]2 [F,A,]2 | [E,C]4 [F,C]2 [C,C]2 | %8
 [F,C]4 [C,C]2 [C,C]2 | [E,C]2 [G,C]2 [G,=B,]3 [G,B,] | [C,C]2 G,2 [C,G,]2 [C,G,]2 | %11
 [E,C]4 [F,C]4 | [F,C]6 [F,C]2 | [B,,B,]4 [C,A,]2 [C,G,]2 |[M:3/4] F,4 z2 |] %15

